X: 152
T: Away to the Camp
%R: jig
B: Chas & Sam Thompson "Twenty Four Country Dances for the Year 1782", London 1782, p.76 #2
F: http://www.vwml.org/browse/browse-collections-dance-tune-books/browse-thompsons1782
Z: 2014 John Chambers <jc:trillian.mit.edu> (added dance description)
M: 6/8
L: 1/8
K: C
% - - - - - - - - - - - - - - - - - - - - - - - - - - - - -
G |\
cdc ege | faf d2f | ege B2c | dcd G2G |\
cdc ege | faf d2f | ege fdB | c3- c2 :|
|: e |\
e3  dcd | efe dcd | egc B2c | dcd G2e |\
e3  dcd | efe dcd | ege fdB | c3- c2 :|
% - - - - - - - - - - Dance description - - - - - - - - - -
%%begintext align
%% The 3 Ladies Promenade round the 3
%% Gent.n .|. the 3 Gent.n round the 3 Ladies
%% :|. lead down the middle up again and
%% cast of .|: Allemand with your Partner :|:
%%endtext

%%sep 1 1 500
%%sep 1 1 500
